!!!!SEGMENT: pl-sa--230-a-vi-34--004_luna-georgius--litania-sancta-maria.krn
!!!cenid: 17xx:498
!!!COM: Luna, Georgius
!!!COM-rismID: pe41010079
!!!CDT:
!!!CNT:
!!!OPR: Litania
!!!OTL: Sancta Maria
!!!OMV: 004
!!!PDT:
!!!AGN: Sacred; Mass
!!!SMS-siglum: PL-SA
!!!SMS-shelfmark: 230/A VI 34
!!!SMS-shelfwork: 001-004 M
!!!SMS-variant: Violino Imo: PL-SA 230/A VI 34:brak karty
!!!SMS-altvar: Violino Imo: PL-SA 230/A VI 34:29
!!!NIFC-rismSourceID: 1001070084
!!!NIFC-rismChildID: 1001070084
!!!NIFC-islandoraID: none
!!!URL-pdf-islandora:
!!!URL-scan: https://bc.bdsandomierz.pl/dlibra/publication/1606/edition/1574/content @EN{Scan in the Sandomierz Diocese Digital Library} @PL{Skany w portalu Cyfrowa Biblioteka Diecezjalna w Sandomierzu}
!!!ONB-nifc: UWAGA: części Litanii: Simphonia, Kirie, Pater de caelis, Sancta Maria, Mater Christi, Mater amabilis, Virgo prudentissima, Speculum, Rosa mistica, Salus infirmorum, Regina angelorum, Agnus Dei
!!!AIN: 3 empty 1 tenor 2 violn 1 vox
!!!key:
**kern	**kern	**kern	**kern	**text	**kern	**text	**kern	**kern
*part7	*part6	*part5	*part4	*part4	*part3	*part3	*part2	*part1
*staff7	*staff6	*staff5	*staff4	*staff4	*staff3	*staff3	*staff2	*staff1
*Iempty	*Ivioln	*Ivioln	*Itenor	*	*Ivox	*	*Iempty	*Iempty
*I"Fundamenti	*I"Violino 2do.	*I"Violino 1mo	*I"Tenore	*	*I"Canto	*	*I"Clarino 2do ex C	*I"Clarino 1mo ex C
*I'bc	*I'vl 2	*I'vl 1	*I'T	*	*I'S	*	*I'clno 2 in C	*I'clno 1 in C
*clefF4	*clefG2	*clefG2	*clefC4	*	*clefC1	*	*clefG2	*clefG2
*k[]	*k[]	*k[]	*k[]	*	*k[]	*	*k[]	*k[]
*C:	*C:	*C:	*C:	*	*C:	*	*C:	*C:
*M3/4	*M3/4	*M3/4	*M3/4	*	*M3/4	*	*M3/4	*M3/4
=1	=1	=1	=1	=1	=1	=1	=1	=1
!	!LO:TX:b:t=Sanctamaria	!LO:SIC:s=:v:brak karty zawierającej vl 1 dla całej częsci, uzupełniono na podstawie altvar&colon; s.29	!	!	!	!	!	!LO:TX:b:t=Sancta Maria
!LO:SIC:s:o=:v:8\right&colon;global	!LO:SIC:s:o=:v:8\right&colon;global	!LO:SIC:s=:v:partia błędnie przypisana do innej części litanii.	!	!	!	!	!LO:SIC:s:o=:v:4\right&colon;global	!LO:SIC:s:o=:v:4\right&colon;global
!LO:TX:a:t=allo n(on) molto	!LO:TX:a:t=all(egr)o	!LO:TX:b:t=Mater amabilis	!LO:SIC:s:o=:v:4\right&colon;global	!	!LO:SIC:s:o=:v:4\right&colon;global	!	!LO:TX:a:t=allo	!LO:TX:a:t=allo
8C\L	8ee\L	8c/	4c\	San-	4ee\	San-	4cc\	4ee\
8C\	8ee\	4e/	.	.	.	.	.	.
!	!	!	!	!	!	!	!LO:TX:a:t=P:problem=mixed beam	!
!	!	!	!	!	!	!	!LO:SIC:s:o=:v:8\right&colon;global	!LO:SIC:s:o=:v:8\right&colon;global
8c\	8ee\	.	4c\	-cta	4ee\	-cta	8cc\L	8ee\L
8c\J	8ee\J	4g/	.	.	.	.	8cc\	8ee\
8G\L	8dd\L	.	4B\	Ma-	4dd\	Ma-	8a/	8dd\
8G\J	8dd\J	(16a/LL	.	.	.	.	8a/J	8dd\J
.	.	16b/JJ)	.	.	.	.	.	.
=2	=2	=2	=2	=2	=2	=2	=2	=2
!LO:TX:a:t=P:problem=mixed beam	!	!	!	!	!	!	!	!
8C/L	8ee\L	8cc\	4c\	-ri-	4ee\	-ri-	4cc\	4ee\
8C/	8ee\	4e/	.	.	.	.	.	.
8c\	8ee\	.	4c\	-a	4ee\	-a	8cc\L	8ee\L
8c\J	8ee\	4g/	.	.	.	.	8cc\	8ee\
8G\L	8dd\	.	(4B\	o-	4dd\	o-	8g/	8dd\
8G\J	8dd\J	(16a/LL	.	.	.	.	8g/J	8dd\J
.	.	16b/JJ)	.	.	.	.	.	.
!	!	!	!	!	!LO:LB:g=original	!	!	!
=3	=3	=3	=3	=3	=3	=3	=3	=3
8C/L	8ee\L	16cc\LL	4c\)	.	4ee\	.	8cc\L	8ee\L
.	.	16dd\	.	.	.	.	.	.
8C/	8ee\	16ee\	.	.	.	.	8cc\	8ee\
.	.	16ff\JJ	.	.	.	.	.	.
8C/	8ee\	16gg\LL	4c\	-ra	4ee\	-ra	8cc\	8ee\
.	.	16aa\	.	.	.	.	.	.
8C/	8ee\J	16bb\	.	.	.	.	8cc\	8ee\
.	.	16ccc\JJ	.	.	.	.	.	.
8C/	8ee\L	8cc\L	4c\	pro	4ee\	pro	8cc\	8ee\
8C/J	8cc\J	8ee\J	.	.	.	.	8cc\J	8ee\J
=4	=4	=4	=4	=4	=4	=4	=4	=4
!LO:SIC:s:o=:v:4\right&colon;global	!	!	!	!	!	!	!	!
4G\	4cc\	4ee\	4c\	no-	4ee\	no-	4cc\	4ee\
!	!LO:SIC:s:o=:v:16\right&colon;global	!	!	!	!	!	!	!
4GG/	16b\LL	16dd\LL	4B\	-bis	4dd\	-bis	4g/	4dd\
.	16gg\	16gg\	.	.	.	.	.	.
.	16ff#X\	16ff#X\	.	.	.	.	.	.
.	16ee\JJ	16ee\JJ	.	.	.	.	.	.
4r	16dd/LL	16dd\LL	4r	.	4r	.	4r	4r
.	16cc/	16cc\	.	.	.	.	.	.
.	16b/	16b\	.	.	.	.	.	.
.	16a/JJ	16a\JJ	.	.	.	.	.	.
=5	=5	=5	=5	=5	=5	=5	=5	=5
!LO:TX:a:t=P:problem=mixed beam	!	!	!LO:SIC:s:o=:v:8\right&colon;global	!	!LO:SIC:s:o=:v:8\right&colon;global	!	!	!
8GG/L	8g/L	8g/	8d\	San-	8b\	san-	4dd\	4dd\
8GG/	8b/	4B/	8d\	-cta	8b\	-cta	.	.
8G\	8b/	.	4d\	De-	4b\	De-	8dd\L	8dd\L
8G\J	8b/J	4d/	.	.	.	.	8dd\	8dd\
8D\L	8a/L	.	4d\	-i	4a\	-i	8dd\	8dd\
8D\J	8a/J	(16e/LL	.	.	.	.	8dd\J	8dd\J
.	.	16f#X/JJ)	.	.	.	.	.	.
=6	=6	=6	=6	=6	=6	=6	=6	=6
!LO:TX:a:t=P:problem=mixed beam	!	!	!	!	!	!	!	!
8GG/L	8b/L	8g/	8d\	ge-	8b\	ge-	4dd\	4dd\
8GG/	8b/	4B/	8d\	-ni-	8b\	-ni-	.	.
8G\	8b/	.	4d\	-trix	4b\	-trix	8dd\L	8dd\L
8G\J	8b/	4d/	.	.	.	.	8dd\	8dd\
8D\L	8a/	.	4d\	o-	4a\	o-	8dd\	8dd\
8D\J	8a/J	(16e/LL	.	.	.	.	8dd\J	8dd\J
!	!	!LO:SIC:s=:v:16f#	!	!	!	!	!	!
.	.	16f/JJ)	.	.	.	.	.	.
=7	=7	=7	=7	=7	=7	=7	=7	=7
8GG/L	8b/L	16g/LL	4d\	.	4b\	.	8dd\L	8dd\L
.	.	16a/	.	.	.	.	.	.
8GG/	8b/	16b/	.	.	.	.	8dd\	8dd\
.	.	16cc/JJ	.	.	.	.	.	.
8GG/	8b/	16dd\LL	4d\	-ra	4b\	-ra	8dd\	8dd\
.	.	16ee\	.	.	.	.	.	.
!	!	!LO:SIC:s=:v:16ff#	!	!	!	!	!	!
8GG/	8b/	16ff\	.	.	.	.	8dd\	8dd\
.	.	16gg\JJ	.	.	.	.	.	.
8GG/	8b/	8g/L	4d\	pro	4b\	pro	8dd\	8dd\
8GG/J	8g/J	8b/J	.	.	.	.	8dd\J	8dd\J
!	!	!LO:LB:g=original	!LO:LB:g=original	!	!	!	!	!
=8	=8	=8	=8	=8	=8	=8	=8	=8
8D\L	8b/L	4b\	4d\	no-	4b\	no-	4dd\	4dd\
8D\	8f#X/	.	.	.	.	.	.	.
!	!LO:SIC:s=:v:2-dźwięk niemożliwy do zagrania przez pojedyncze skrzypce	!	!	!	!	!	!	!
8D\	8A/ 8c/	8a/L	4c\	-bis	4a\	-bis	4dd\	4dd\
8D\	8d/	8d/	.	.	.	.	.	.
8D\	8f#/	8f#X/	4r	.	4r	.	4r	4r
8D\J	8f#/J	8a/J	.	.	.	.	.	.
!LO:LB:g=original	!LO:LB:g=original	!	!	!	!	!	!LO:LB:g=original	!
=9	=9	=9	=9	=9	=9	=9	=9	=9
8D\L	8a/L	8dd\	4A\	San-	4cc\	San-	4dd\	4dd\
8D\	8a/	4ff#X\	.	.	.	.	.	.
8D\	8a/	.	4A\	-cta	4cc\	-cta	8dd\L	8dd\L
8D\	8a/	16aa\LL	.	.	.	.	8dd\	8dd\
.	.	16gg\JJ	.	.	.	.	.	.
8D\	8a/	16ff#\LL	8A\	vir-	8cc\	vir-	8dd\	8dd\
.	.	16ee\	.	.	.	.	.	.
8D\J	8a/J	16dd\	8A\	-go	8cc\	-go	8dd\J	8dd\J
.	.	16cc\JJ	.	.	.	.	.	.
=10	=10	=10	=10	=10	=10	=10	=10	=10
8G\L	4a/	(4cc\	8A\	vir-	8cc\	vir-	4g/	4dd\
8G\	.	.	8A\	-gi-	8cc\	-gi-	.	.
8G\	8g/L	8b\L)	4G/	-nu(m)	4b\	-num	4r	4r
8G\	8d/	8g\	.	.	.	.	.	.
8G\	8g/	8b\	4r	.	4r	.	4r	4r
8G\J	8b/J	8dd\J	.	.	.	.	.	.
=11	=11	=11	=11	=11	=11	=11	=11	=11
8G\L	8dd\L	8ffn\	4d\	o-	4ff\	o-	4dd\	4ff\
8G\	8dd\	4bb\	.	.	.	.	.	.
8G\	8dd\	.	4d\	-ra	4ff\	-ra	4r	4r
8G\	8dd\	16ddd\LL	.	.	.	.	.	.
.	.	16ccc\JJ	.	.	.	.	.	.
8G\	8dd\	16bb\LL	[4d\	pro	4ff\	pro	4r	4r
.	.	16aa\	.	.	.	.	.	.
8G\J	8dd\J	16gg\	.	.	.	.	.	.
.	.	16ff\JJ	.	.	.	.	.	.
!	!	!	!	!	!LO:LB:g=original	!	!	!LO:LB:g=original
=12	=12	=12	=12	=12	=12	=12	=12	=12
8G\L	8dd\L	8ff\	4d\]	no-	4ff\	no-	4dd\	4ff\
8C\	8cc\J	4ee\	.	.	.	.	.	.
8C\	8cc\L	.	4c\	-bis	4ee\	-bis	4cc\	4ee\
8C\	8ee\	16ccc\LL	.	.	.	.	.	.
.	.	16bb\JJ	.	.	.	.	.	.
8C\	8ee\	16aa\LL	[4c\	o-	4ee\	o-	4r	4r
.	.	16gg\	.	.	.	.	.	.
8C\J	8ee\J	16ff\	.	.	.	.	.	.
.	.	16ee\JJ	.	.	.	.	.	.
=13	=13	=13	=13	=13	=13	=13	=13	=13
*	*	*	*	*ij	*	*ij	*	*
8G\L	8cc\L	8ee\	4c\]	.	4ee\	-ra	4cc\	4ee\
8G\	8b\	4dd\	.	.	.	.	.	.
8G\	8b\	.	4B\	-ra	4dd\	pro	4g/	4dd\
8G\	8dd\J	16bb\LL	.	.	.	.	.	.
.	.	16aa\JJ	.	.	.	.	.	.
8G\	8dd\L	16gg\LL	[4B\	pro	4dd\	no-	4r	4r
.	.	16ff#X\	.	.	.	.	.	.
8G\J	8dd\J	16ee\	.	.	.	.	.	.
.	.	16dd\JJ	.	.	.	.	.	.
=14	=14	=14	=14	=14	=14	=14	=14	=14
8D\L	8b/L	8dd\	4B\]	no-	4dd\	-bis	4dd\	4dd\
8D\	8a/	4cc\	.	.	.	.	.	.
8D\	8a/	.	4B\	-bis	4cc\	pro	4dd\	4dd\
8D\	8cc/J	16aa\LL	.	.	.	.	.	.
.	.	16gg\JJ	.	.	.	.	.	.
8D\	8cc\L	16ffn\LL	4A\	pro	4cc\	no-	4r	4r
*	*	*	*	*Xij	*	*Xij	*	*
.	.	16ee\	.	.	.	.	.	.
8D\J	8cc\J	16dd\	.	.	.	.	.	.
.	.	16cc\JJ	.	.	.	.	.	.
!	!	!LO:LB:g=original	!	!	!	!	!	!
=15	=15	=15	=15	=15	=15	=15	=15	=15
4D\	4a/	4cc\	4A/	no-	4cc\	-bis	4cc\	4dd\
4G\	8g/L	16b/LL	4G/	-bis	4b\	.	4g/	4dd\
.	.	16g/	.	.	.	.	.	.
.	16a/L	16a/	.	.	.	.	.	.
.	16b/JJ	16b/JJ	.	.	.	.	.	.
4r	16cc\LL	16cc\LL	4r	.	4r	.	4r	4r
.	16dd\	16dd\	.	.	.	.	.	.
.	16ee\	16ee\	.	.	.	.	.	.
.	16ff#X\JJ	16ff#X\JJ	.	.	.	.	.	.
!LO:TX:b:t=verte cito	!	!	!	!	!	!	!	!
!LO:PB:g=original	!	!	!	!	!	!	!	!
=16	=16	=16	=16	=16	=16	=16	=16	=16
!	!	!LO:TX:a:t=P:problem=mixed beam	!	!	!	!	!	!
8G\L	8.gg\L	8.gg\L	4B\	o-	4dd\	o-	4g/	4dd\
8G\	.	.	.	.	.	.	.	.
.	16b\Jk	16g/Jk	.	.	.	.	.	.
*	*2\right	*2\right	*	*	*2\right	*	*	*
8G\	2cc\	2eet\	2c\	-ra	2ee\	-ra	4r	4r
8G\	.	.	.	.	.	.	.	.
8G\	.	.	.	.	.	.	4r	4r
8G\J	.	.	.	.	.	.	.	.
=17	=17	=17	=17	=17	=17	=17	=17	=17
*	*	*	*	*	*	*ij	*	*
8G\L	8.b/L	8.dd\L	4B\	o-	4dd\	o-	4g/	4dd\
8G\	.	.	.	.	.	.	.	.
.	16g/Jk	16b\Jk	.	.	.	.	.	.
8D\	2a/	2ccT\	2A\	-ra	2cc\	-ra	4r	4r
8D\	.	.	.	.	.	.	.	.
8D\	.	.	.	.	.	.	4r	4r
8D\J	.	.	.	.	.	.	.	.
!	!	!	!LO:LB:g=original	!	!	!	!	!
=18	=18	=18	=18	=18	=18	=18	=18	=18
*	*	*	*	*ij	*	*	*	*
8G\L	8.g/L	8.b\L	4G/	o-	4b\	o-	4g/	4dd\
8G\	.	.	.	.	.	.	.	.
.	16b/Jk	16g\Jk	.	.	.	.	.	.
8G\	2cc\	2eet\	2c\	-ra	2ee\	-ra	4r	4r
8G\	.	.	.	.	.	.	.	.
8G\	.	.	.	.	.	.	4r	4r
8G\J	.	.	.	.	.	.	.	.
!	!LO:LB:g=original	!	!	!	!	!	!	!
=19	=19	=19	=19	=19	=19	=19	=19	=19
8G\L	8.b/L	8.dd\L	4B\	o-	4dd\	o-	4g/	4dd\
8G\	.	.	.	.	.	.	.	.
.	16g/Jk	16b\Jk	.	.	.	.	.	.
8D\	2a/	2ccT\	2A\	-ra	2cc\	-ra	4r	4r
*	*	*	*	*Xij	*	*Xij	*	*
8D\	.	.	.	.	.	.	.	.
8D\	.	.	.	.	.	.	4r	4r
8D\J	.	.	.	.	.	.	.	.
=20	=20	=20	=20	=20	=20	=20	=20	=20
8G\L	8g/L	8b\L	4G/	pro	4b\	pro	4dd\	4dd\
8B\J	8b/J	8gg\J	.	.	.	.	.	.
4d\	4f#X/	4d/	2F#X/	no-	2a\	no-	4dd\	4dd\
4D/	4a/	4ff#X\	.	.	.	.	4dd\	4dd\
=21	=21	=21	=21	=21	=21	=21	=21	=21
!	!	!LO:TX:a:t=P:problem=mixed beam	!	!	!	!	!	!
8G\L	16b/LL	16gg\LL	4G/	-bis	4b\	-bis	4g/	4dd\
.	16d/	16g/	.	.	.	.	.	.
8G\	16d/	16g/	.	.	.	.	.	.
.	16d/JJ	16g/JJ	.	.	.	.	.	.
8G\	16g/LL	16b/LL	4r	.	4r	.	8g/L	8dd\L
.	16g/	16b/	.	.	.	.	.	.
8G\	16g/	16b/	.	.	.	.	8g/	8dd\
.	16g/JJ	16b/JJ	.	.	.	.	.	.
8G\	16b/LL	16dd\LL	4r	.	4r	.	8g/	8dd\
.	16b/	16dd\	.	.	.	.	.	.
8G\J	16b/	16dd\	.	.	.	.	8g/J	8dd\J
.	16b/JJ	16dd\JJ	.	.	.	.	.	.
=22	=22	=22	=22	=22	=22	=22	=22	=22
!	!	!	!LO:N:vis=00	!	!LO:N:vis=00	!	!	!
8G\L	16dd\LL	16ffn\LL	0.r	.	0.r	.	4g/	4dd\
.	16dd\	16ff\	.	.	.	.	.	.
8G\	16dd\	16ff\	.	.	.	.	.	.
.	16dd\JJ	16ff\JJ	.	.	.	.	.	.
8G\	16gg\LL	16bb\LL	.	.	.	.	8g/L	8dd\L
.	16gg\	16bb\	.	.	.	.	.	.
*	*	*	*	*	*	*	*custos:dd	*
8G\	16gg\	16bb\	.	.	.	.	8g/J	8dd\
.	16gg\JJ	16bb\JJ	.	.	.	.	.	.
!	!	!	!	!	!	!	!LO:LB:g=original	!
8G\	8bb\L	8ddd\L	.	.	.	.	8g/L	8dd\
8G\J	8dd\J	8ff\J	.	.	.	.	8g/J	8dd\J
=23	=23	=23	=23	=23	=23	=23	=23	=23
!LO:SIC:s=:v:16C#	!	!	!	!	!	!	!	!
!LO:TX:a:t=P:problem=mixed beam	!LO:SIC:s=:v:16cc#	!	!	!	!	!	!	!
8C/L	16cc/LL	16ee\LL	.	.	.	.	4cc\	4ee\
.	16e/	16a\	.	.	.	.	.	.
8A\	16e/	16a\	.	.	.	.	.	.
.	16e/JJ	16a\JJ	.	.	.	.	.	.
!	!	!LO:LB:g=original	!	!	!	!	!	!
8A\	16a/LL	16cc#X\LL	.	.	.	.	4r	4r
.	16a/	16cc#\	.	.	.	.	.	.
8A\	16a/	16cc#\	.	.	.	.	.	.
.	16a/JJ	16cc#\JJ	.	.	.	.	.	.
8A\	16cc#X\LL	16ee\LL	.	.	.	.	4r	4r
.	16cc#\	16ee\	.	.	.	.	.	.
8A\J	16cc#\	16ee\	.	.	.	.	.	.
.	16cc#\JJ	16ee\JJ	.	.	.	.	.	.
=24	=24	=24	=24	=24	=24	=24	=24	=24
!	!	!	!	!	!	!	!LO:TX:a:t=1	!LO:TX:a:t=1
8A\L	16ee\LL	16gg\LL	.	.	.	.	2.r	2.r
.	16ee\	16gg\	.	.	.	.	.	.
8A\	16ee\	16gg\	.	.	.	.	.	.
.	16ee\JJ	16gg\JJ	.	.	.	.	.	.
8A\	16gg\LL	16ccc#X\LL	.	.	.	.	.	.
.	16gg\	16ccc#\	.	.	.	.	.	.
8A\	16gg\	16ccc#\	.	.	.	.	.	.
.	16gg\JJ	16ccc#\JJ	.	.	.	.	.	.
8A\	8ccc#X\L	8eee\L	.	.	.	.	.	.
8A\J	8ee\J	8gg\J	.	.	.	.	.	.
=25	=25	=25	=25	=25	=25	=25	=25	=25
!	!	!LO:SIC:s=:v:16ff#	!	!	!	!	!	!
!	!LO:TX:a:t=P:problem=mixed beam	!LO:TX:a:t=P:problem=mixed beam	!	!	!	!	!	!
8D/L	16dd\LL	16ff\LL	.	.	.	.	4r	4r
.	16A/	16d/	.	.	.	.	.	.
8D/	16A/	16d/	.	.	.	.	.	.
.	16A/JJ	16d/JJ	.	.	.	.	.	.
!	!LO:LB:g=original	!	!	!	!	!	!	!
8D/	16d/LL	16f#X/LL	.	.	.	.	8dd\L	8dd\L
.	16d/	16f#/	.	.	.	.	.	.
8D/	16d/	16f#/	.	.	.	.	8dd\	8dd\
.	16d/JJ	16f#/JJ	.	.	.	.	.	.
8D/	16f#X/LL	16a/LL	.	.	.	.	8dd\	8dd\
.	16f#/	16a/	.	.	.	.	.	.
8D/J	16f#/	16a/	.	.	.	.	8dd\J	8dd\J
.	16f#/JJ	16a/JJ	.	.	.	.	.	.
!LO:LB:g=original	!	!	!	!	!	!	!	!LO:LB:g=original
=26	=26	=26	=26	=26	=26	=26	=26	=26
!	!	!	!LO:N:vis=0	!	!LO:N:vis=0	!	!	!
8D/L	16a/LL	16ccn\LL	1.r	.	1.r	.	4dd\	4dd\
.	16a/	16cc\	.	.	.	.	.	.
8D/	16a/	16cc\	.	.	.	.	.	.
.	16a/JJ	16cc\JJ	.	.	.	.	.	.
8D/	16ccn\LL	16ff#X\LL	.	.	.	.	8dd\L	8dd\L
.	16cc\	16ff#\	.	.	.	.	.	.
8D/	16cc\	16ff#\	.	.	.	.	8dd\	8dd\
.	16cc\JJ	16ff#\JJ	.	.	.	.	.	.
8D/	8ff#X\L	8aa\L	.	.	.	.	8dd\	8dd\
8D/J	8a\J	8cc\J	.	.	.	.	8dd\J	8dd\J
=27	=27	=27	=27	=27	=27	=27	=27	=27
8G\L	8g/L	8b\L	.	.	.	.	4g/	4dd\
8B\J	8b/J	8gg\J	.	.	.	.	.	.
4d\	4f#X/	4d/	.	.	.	.	4dd\	4dd\
4D/	4f#/	4a/T	.	.	.	.	4dd\	4dd\
=28	=28	=28	=28	=28	=28	=28	=28	=28
!LO:TX:a:t=P:problem=mixed beam	!	!	!	!	!	!	!	!
8GG/L	8b\L	8g/	4d\	San-	4b\	San-	4g/	4dd\
8GG/	8b\	4B/	.	.	.	.	.	.
8G\	8b\	.	4d\	-cta	4b\	-cta	4r	4r
8G\J	8b\J	4d/	.	.	.	.	.	.
8D\L	8a/L	.	4d\	ma-	4a\	.	4r	4r
8D\J	8a/J	(16e/LL	.	.	.	.	.	.
.	.	16f#X/JJ)	.	.	.	.	.	.
=29	=29	=29	=29	=29	=29	=29	=29	=29
!LO:TX:a:t=P:problem=mixed beam	!	!	!	!	!	!	!	!
8GG/L	8b\L	8g/	4d\	-ri-	4b\	Ma-	4g/	4dd\
8GG/	8b\	4B/	.	.	.	.	.	.
8G\	8b\	.	4d\	-a	4b\	-ri-	4r	4r
8G\J	8b\J	4d/	.	.	.	.	.	.
8D\L	8a/L	.	[4d\	o-	4a\	-a	4r	4r
8D\J	8a/J	16e/LL	.	.	.	.	.	.
!	!	!LO:SIC:s=:v:16f#	!	!	!	!	!	!
.	.	16f/JJ	.	.	.	.	.	.
!	!	!LO:LB:g=original	!	!	!LO:LB:g=original	!	!	!
=30	=30	=30	=30	=30	=30	=30	=30	=30
8GG/L	8b\L	16g/LL	4d\]	.	4b\	o-	4g/	4dd\
.	.	16a/	.	.	.	.	.	.
8GG/	8b\	16b/	.	.	.	.	.	.
.	.	16cc/JJ	.	.	.	.	.	.
8GG/	8b\	16dd\LL	4d\	-ra	4b\	-ra	8g/L	8dd\L
.	.	16ee\	.	.	.	.	.	.
!	!	!LO:SIC:s=:v:16ff#	!	!	!	!	!	!
8GG/	8b\J	16ff\	.	.	.	.	8g/	8dd\
.	.	16gg\JJ	.	.	.	.	.	.
8GG/	8b\L	8g/L	4d\	pro	4b\	pro	8g/	8dd\
8GG/J	8g\J	8b/J	.	.	.	.	8g/J	8dd\J
=31	=31	=31	=31	=31	=31	=31	=31	=31
4D\	4g/	4b/	4d\	no-	4b\	no-	4dd\	4dd\
!	!LO:TX:a:t=P:problem=mixed beam	!	!	!	!	!	!	!
4DD/	16f#X/LL	16a\LL	4d\	-bis	4a\	-bis	4dd\	4dd\
.	16dd\	16dd\	.	.	.	.	.	.
.	16cc#X\	16cc#X\	.	.	.	.	.	.
.	16b\JJ	16b\JJ	.	.	.	.	.	.
4r	16a/LL	16a/LL	4r	.	4r	.	4r	4r
.	16g/	16g/	.	.	.	.	.	.
.	16f#/	16f#X/	.	.	.	.	.	.
.	16e/JJ	16e/JJ	.	.	.	.	.	.
=32	=32	=32	=32	=32	=32	=32	=32	=32
!LO:TX:a:t=P:problem=mixed beam	!LO:TX:a:t=P:problem=mixed beam	!	!	!	!	!	!LO:N:vis=00	!LO:N:vis=00
8D/L	8d/L	8d/	8d\	San-	8ff#X\	San-	0.r	0.r
8D/	8ff#X\	4f#X/	8d\	-cta	8ff#\	-cta	.	.
8d\	8ff#\	.	4d\	De-	4ff#\	De-	.	.
8d\	8ff#\J	4a/	.	.	.	.	.	.
*	*custos:ee	*	*	*	*	*	*	*
!	!LO:LB:g=original	!	!	!	!	!	!	!
8D/	8ee\L	.	4c#X\	-i	4ee\	-i	.	.
8D/J	8ee\J	16b\LL	.	.	.	.	.	.
.	.	16cc#X\JJ	.	.	.	.	.	.
=33	=33	=33	=33	=33	=33	=33	=33	=33
!	!	!	!	!	!LO:SIC:s=:v:być może ustęp faktycznie mollowy?	!	!	!
!	!LO:SIC:s=:v:8ff#	!	!	!	!LO:SIC:s=:v:8ff#	!	!	!
8D\L	8ff\L	8dd\	8d\	ge-	8ff\	ge-	.	.
!	!LO:SIC:s=:v:8ff#	!LO:SIC:s=:v:4f#	!	!	!LO:SIC:s=:v:8ff#	!	!	!
8D\	8ff\	4f/	8d\	-ni-	8ff\	-ni-	.	.
!	!LO:SIC:s=:v:8ff#	!	!	!	!LO:SIC:s=:v:4ff#	!	!	!
8d\	8ff\	.	4d\	-trix	4ff\	-trix	.	.
!	!LO:SIC:s=:v:8ff#	!	!	!	!	!	!	!
8d\	8ff\	4a/	.	.	.	.	.	.
8A\	8ee\	.	(4c\	o-	4ee\	o-	.	.
8A\J	8ee\J	16b\LL	.	.	.	.	.	.
.	.	16cc#X\JJ	.	.	.	.	.	.
!	!	!	!LO:LB:g=original	!	!	!	!	!
=34	=34	=34	=34	=34	=34	=34	=34	=34
!	!	!LO:TX:a:t=P:problem=mixed beam	!	!	!LO:SIC:s=:v:4ff#	!	!	!
8D\L	8ff\L	16dd\LL	4d\)	.	4ff\	.	.	.
.	.	16d/	.	.	.	.	.	.
!	!LO:SIC:s=:v:8f#	!	!	!	!	!	!	!
8D\	8f/	16e/	.	.	.	.	.	.
!	!	!LO:SIC:s=:v:16f#	!	!	!	!	!	!
.	.	16f/JJ	.	.	.	.	.	.
!	!LO:SIC:s=:v:8f#	!	!	!	!LO:SIC:s=:v:4ff#	!	!	!
*	*	*	*	*	*	*ij	*	*
8D\	8f/	16g/LL	4d\	-ra	4ff\	-ra	.	.
.	.	16a/	.	.	.	.	.	.
!	!LO:SIC:s=:v:8f#	!	!	!	!	!	!	!
8D\	8f/J	16b/	.	.	.	.	.	.
.	.	16ccn/JJ	.	.	.	.	.	.
!	!LO:SIC:s=:v:8f#	!	!	!	!LO:SIC:s=:v:4ff#	!	!	!
8D\	8f/L	8dd\L	8d\L	pro	4ff\	pro	.	.
*	*	*	*	*	*	*Xij	*	*
8D\J	8a/J	[8cc\J	8cn\J	.	.	.	.	.
=35	=35	=35	=35	=35	=35	=35	=35	=35
!	!	!	!	!	!LO:SIC:s=:v:4ff#	!	!	!
8G\L	4a/	4cc\]	4c\	no-	4ff\	no-	.	.
8G\	.	.	.	.	.	.	.	.
8G\	8g/L	8b\L	4B\	-bis	4gg\	-bis	.	.
8G\	8g/J	16g\L	.	.	.	.	.	.
.	.	16a\JJ	.	.	.	.	.	.
8G\	16g/LL	16b\LL	4r	.	4r	.	.	.
.	16a/	16cc\	.	.	.	.	.	.
8G\J	16b/	16dd\	.	.	.	.	.	.
.	16cc/JJ	16ee\JJ	.	.	.	.	.	.
!LO:LB:g=original	!	!	!	!	!	!	!	!
=36	=36	=36	=36	=36	=36	=36	=36	=36
*	*	*	*	*ij	*	*	*	*
8G\L	8dd\	8ffn\	4d\	o-	4ffn\	San-	4g/	4dd\
8G\	4g/	4g/	.	.	.	.	.	.
8G\	.	.	4d\	-ra	4ff\	-cta	8g/L	8dd\L
8G\J	4dd\	4ff\	.	.	.	.	8g/	8dd\
8B\L	.	.	4c\	pro	4ee\	virgo	8g/	8dd\
8c\J	8cc\	8ee\	.	.	.	.	8cc/J	8ee\J
!	!	!LO:LB:g=original	!	!	!	!	!	!
=37	=37	=37	=37	=37	=37	=37	=37	=37
*	*	*	*	*	*	*ij	*	*
4G\	4cc\	4ee\	4c\	no-	4ee\	vir-	4cc\	4ee\
4GG/	4b\	4dd\	4B\	-bis	4dd\	-go	4g/	4dd\
*	*	*	*	*Xij	*	*Xij	*	*
4GG/	4r	4r	4r	.	4r	.	4r	4r
=38	=38	=38	=38	=38	=38	=38	=38	=38
!LO:TX:a:t=P:problem=mixed beam	!	!	!	!	!	!	!	!
*	*	*	*	*	*	*ij	*	*
8C/L	8ee\L	8c/	4c\	San-	4ee\	vir-	4cc\	4ee\
8C/	8ee\	4e/	.	.	.	.	.	.
8c\	8ee\	.	4c\	-cta	4ee\	-go	8cc\L	8ee\L
*	*	*	*	*	*	*Xij	*	*
8c\J	8ee\J	4g/	.	.	.	.	8cc\J	8ee\
*	*	*	*	*	*	*	*custos:dd	*
!	!	!	!	!	!	!	!LO:LB:g=original	!
8G\L	8dd\L	.	8B\	vir-	8dd\	vir-	8g/L	8dd\
8G\J	8dd\J	16a/LL	8B\	-go	8dd\	-go	8g/J	8dd\J
.	.	16b/JJ	.	.	.	.	.	.
=39	=39	=39	=39	=39	=39	=39	=39	=39
!LO:TX:a:t=P:problem=mixed beam	!	!	!	!	!	!	!	!
8C/L	8ee\L	8cc\	4c\	vir-	8ee\	vir-	4cc\	4ee\
8C/	8ee\	4e/	.	.	8ee\	-gi-	.	.
!	!	!	!	!	!LO:LB:g=original	!	!	!
8c\	8ee\	.	4c\	-gi-	4ee\	-nu(m)	8cc\L	8ee\L
8c\J	8ee\J	4g/	.	.	.	.	8cc\J	8ee\
8G\L	8dd\L	.	8B\	-nu(m)	4dd\	o-	8g/L	8dd\
8G\J	8dd\J	16a/LL	8B\	o-	.	.	8g/J	8dd\J
.	.	16b/JJ	.	.	.	.	.	.
=40	=40	=40	=40	=40	=40	=40	=40	=40
8C/L	16cc\LL	16cc\LL	4c\	.	4ee\	.	4cc\	4ee\
.	16dd\	16dd\	.	.	.	.	.	.
8C/	16ee\	16ee\	.	.	.	.	.	.
.	16ff\JJ	16ff\JJ	.	.	.	.	.	.
*	*	*	*	*	*	*ij	*	*
8E/	16gg\LL	16gg\LL	4c\	-ra	4ee\	-ra	4r	4r
.	16aa\	16aa\	.	.	.	.	.	.
8E/	16bb\	16bb\	.	.	.	.	.	.
.	16ccc\JJ	16ccc\JJ	.	.	.	.	.	.
8C/	8cc\L	8cc\L	4G/	pro	4ee\	pro	8r	8r
*	*	*	*	*	*	*Xij	*	*
8C/J	8bb-X\J	8bb-X\J	.	.	.	.	8ee\	8gg\
!	!LO:LB:g=original	!	!	!	!	!	!	!
=41	=41	=41	=41	=41	=41	=41	=41	=41
8F\L	16aa\LL	16aa\LL	4A/	no-	4ff\	no-	4ff\	4aa\
.	16gg\	16gg\	.	.	.	.	.	.
8D\	16ff\	16ff\	.	.	.	.	.	.
.	16aa\JJ	16aa\JJ	.	.	.	.	.	.
8E\	16gg\LL	16gg\LL	4G/	-bis	4ee\	.	4r	4r
.	16ff\	16ff\	.	.	.	.	.	.
8C\J	16ee\	16ee\	.	.	.	.	.	.
.	16gg\JJ	16gg\JJ	.	.	.	.	.	.
8D/L	16ff\LL	16ff\LL	4F/	o-	4dd\	-bis	4r	4r
.	16ee\	16ee\	.	.	.	.	.	.
8BB/J	16dd\	16dd\	.	.	.	.	.	.
.	16ff\JJ	16ff\JJ	.	.	.	.	.	.
=42	=42	=42	=42	=42	=42	=42	=42	=42
!	!	!	!	!	!	!	!	!LO:TX:a:t=1
*	*	*	*	*	*	*ij	*	*
8C/L	16ee\LL	16ee\LL	4c\	.	4ee\	pro	2.r	2.r
.	16dd\	16dd\	.	.	.	.	.	.
8AA/	16cc\	16cc\	.	.	.	.	.	.
.	16ee\JJ	16ee\JJ	.	.	.	.	.	.
*	*	*	*	*ij	*	*	*	*
8BB/	16dd\LL	16dd\LL	4B\	-ra	4dd\	no-	.	.
*	*	*	*	*	*	*Xij	*	*
.	16cc\	16cc\	.	.	.	.	.	.
8GG/J	16b\	16b\	.	.	.	.	.	.
.	16dd\JJ	16dd\JJ	.	.	.	.	.	.
8AA/L	16cc\LL	16cc\LL	4A\	pro	4cc\	.	.	.
.	16b\	16b\	.	.	.	.	.	.
8FF#X/J	16a\	16a\	.	.	.	.	.	.
.	16cc\JJ	16cc\JJ	.	.	.	.	.	.
!	!	!	!	!	!	!	!	!LO:LB:g=original
=43	=43	=43	=43	=43	=43	=43	=43	=43
!LO:TX:a:t=P:problem=mixed beam	!	!	!	!	!	!	!	!
8GG/L	8b/L	8b/L	4G/	no-	4b\	-bis	4g/	4dd\
8G\	16g/L	16g/L	.	.	.	.	.	.
.	16a/JJ	16a/JJ	.	.	.	.	.	.
8G\	16b\LL	16b\LL	4B\	.	4dd\	o-	8g/L	8dd\L
.	16cc\	16cc\	.	.	.	.	.	.
8G\	16dd\	16dd\	.	.	.	.	8g/	8dd\
.	16ee\JJ	16ee\JJ	.	.	.	.	.	.
8G\	8ff\L	8ff\L	4B\	-bis	4dd\	-ra	8g/	8dd\
*	*	*	*	*Xij	*	*	*	*
8G\J	8dd\J	8dd\J	.	.	.	.	8g/J	8dd\J
!	!	!LO:LB:g=original	!LO:LB:g=original	!	!	!	!	!
=44	=44	=44	=44	=44	=44	=44	=44	=44
*	*	*	*	*	*	*ij	*	*
8C\L	8ee\L	8ee\L	4c\	o-	4ee\	o-	4cc\	4ee\
8E\	8cc\J	8cc\J	.	.	.	.	.	.
8G\	4g/	4g/	2B\	-ra	2dd\	-ra	4g/	4ee\
8G\J	.	.	.	.	.	.	.	.
8GG/L	4ddT\	4ddT\	.	.	.	.	4g/	8dd\L
8GG/J	.	.	.	.	.	.	.	8dd\J
!LO:LB:g=original	!	!	!	!	!	!	!	!
=45	=45	=45	=45	=45	=45	=45	=45	=45
8C/L	8.cc\L	8.cc\L	4c\	o-	4ee\	o-	4cc\	4ee\
8C/	.	.	.	.	.	.	.	.
.	16ee\Jk	16gg\Jk	.	.	.	.	.	.
8C/	2ff\	2aaT\	2A/	-ra	2ff\	-ra	4r	4r
8C/	.	.	.	.	.	.	.	.
8C/	.	.	.	.	.	.	4r	4r
8C/J	.	.	.	.	.	.	.	.
=46	=46	=46	=46	=46	=46	=46	=46	=46
8C\L	8.ee\L	8.gg\L	4G/	pro	4ee\	o-	4cc\	4ee\
8C\	.	.	.	.	.	.	.	.
.	16cc\Jk	16ee\Jk	.	.	.	.	.	.
8G\	2dd\	2ffT\	2F/	no-	2dd\	-ra	4r	4r
8G\	.	.	.	.	.	.	.	.
8G\	.	.	.	.	.	.	4r	4r
8G\J	.	.	.	.	.	.	.	.
=47	=47	=47	=47	=47	=47	=47	=47	=47
!	!	!LO:TX:a:t=P:problem=mixed beam	!	!	!	!	!	!
8C/L	8.cc/L	8.ee\L	4E/	-bis	4cc\	o-	4cc\	4ee\
8C/	.	.	.	.	.	.	.	.
.	16e/Jk	16g/Jk	.	.	.	.	.	.
8C/	2f/	2aT/	2f\	o-	2a\	-ra	4r	4r
8C/	.	.	.	.	.	.	.	.
8C/	.	.	.	.	.	.	4r	4r
8C/J	.	.	.	.	.	.	.	.
=48	=48	=48	=48	=48	=48	=48	=48	=48
*	*	*	*	*	*	*Xij	*	*
8C/L	8.e/L	8.g/L	4e\	.	4g/	o-	4cc\	4ee\
8GG/	.	.	.	.	.	.	.	.
.	16c/Jk	16e/Jk	.	.	.	.	.	.
8GG/	2d/	2fT/	2d\	-ra	2f/	.	4r	4r
8GG/	.	.	.	.	.	.	.	.
8GG/	.	.	.	.	.	.	4r	4r
8GG/J	.	.	.	.	.	.	.	.
!	!LO:LB:g=original	!	!	!	!	!	!	!
=49	=49	=49	=49	=49	=49	=49	=49	=49
!	!LO:TX:a:t=P:problem=mixed beam	!LO:TX:a:t=P:problem=mixed beam	!	!	!	!	!	!
8C\L	8c/L	8e/L	8c\	ra	8e/	-ra	4dd\	4ee\
8E\J	8cc\J	8cc\J	8c\	pro	8ee\	pro	.	.
4G\	4d/	4g/	2B\	no-	2dd\	no-	4g/	4dd\
4GG/	4bt\	4dd\	.	.	.	.	4g/	4dd\
=50	=50	=50	=50	=50	=50	=50	=50	=50
2C/	4cc\	4cc\	2c\	-bis	2ee\	-bis	4e/	4cc\
.	4c/	4c/	.	.	.	.	4r	4r
4r	4r	4r	4r	.	4r	.	4r	4r
==	==	==	==	==	==	==	==	==
*-	*-	*-	*-	*-	*-	*-	*-	*-
!!!system-decoration: [(s1,s2)][(s3,s4)][(s5,s6)]s7
!!!EED: Leszek Kubiak
!!!EEV: 2020-10-22
!!!ENC: Krzysztof Stępień
!!!END: 2020-06-12
!!!YEC: Copyright 2022 Narodowy Instytut Fryderyka Chopina (https://polishscores.org)
!!!YEM: License CC-BY-4.0 (https://creativecommons.org/licenses/by/4.0)
